src/shared/assets/images/premier.svg

<svg width="30" height="30" viewBox="0 0 30 30" fill="none" xmlns="http://www.w3.org/2000/svg">
<mask id="path-1-inside-1_2202_22" fill="white">
<path d="M26.4306 0.880646L21.5181 1.85565L24.9431 6.28065L27.4056 5.78065L26.4306 0.880646ZM17.8431 2.58065L15.3806 3.06815L18.8181 7.48065L21.2681 6.99315L17.8431 2.58065ZM11.7181 3.78065L9.25565 4.29315L12.6931 8.70564L15.1431 8.21815L11.7181 3.78065ZM5.58065 5.03065L4.35565 5.26815C4.03364 5.33164 3.72734 5.45808 3.4543 5.6402C3.18127 5.82233 2.94687 6.05656 2.76454 6.32946C2.58222 6.60236 2.45556 6.90858 2.39183 7.23053C2.3281 7.55249 2.32854 7.88386 2.39315 8.20565L2.88065 10.6556L9.00565 9.44314L5.58065 5.03065ZM25.3806 13.1556V23.1556H5.38065V13.1556H25.3806ZM27.8806 10.6556H2.88065V23.1556C2.88065 23.8187 3.14404 24.4546 3.61288 24.9234C4.08172 25.3923 4.71761 25.6556 5.38065 25.6556H25.3806C26.7681 25.6556 27.8806 24.5431 27.8806 23.1556V10.6556Z"/>
</mask>
<path d="M26.4306 0.880646L21.5181 1.85565L24.9431 6.28065L27.4056 5.78065L26.4306 0.880646ZM17.8431 2.58065L15.3806 3.06815L18.8181 7.48065L21.2681 6.99315L17.8431 2.58065ZM11.7181 3.78065L9.25565 4.29315L12.6931 8.70564L15.1431 8.21815L11.7181 3.78065ZM5.58065 5.03065L4.35565 5.26815C4.03364 5.33164 3.72734 5.45808 3.4543 5.6402C3.18127 5.82233 2.94687 6.05656 2.76454 6.32946C2.58222 6.60236 2.45556 6.90858 2.39183 7.23053C2.3281 7.55249 2.32854 7.88386 2.39315 8.20565L2.88065 10.6556L9.00565 9.44314L5.58065 5.03065ZM25.3806 13.1556V23.1556H5.38065V13.1556H25.3806ZM27.8806 10.6556H2.88065V23.1556C2.88065 23.8187 3.14404 24.4546 3.61288 24.9234C4.08172 25.3923 4.71761 25.6556 5.38065 25.6556H25.3806C26.7681 25.6556 27.8806 24.5431 27.8806 23.1556V10.6556Z" fill="white"/>
<path d="M21.5181 1.85565L21.4208 1.36521L20.6281 1.52255L21.1227 2.16169L21.5181 1.85565ZM24.9431 6.28065L24.5477 6.58669L24.738 6.8325L25.0426 6.77065L24.9431 6.28065ZM27.4056 5.78065L27.5051 6.27065L27.9932 6.17154L27.896 5.68307L27.4056 5.78065ZM15.3806 3.06815L15.2835 2.57766L14.4875 2.73526L14.9862 3.37543L15.3806 3.06815ZM18.8181 7.48065L18.4237 7.78793L18.6132 8.03122L18.9157 7.97103L18.8181 7.48065ZM21.2681 6.99315L21.3657 7.48353L22.1592 7.32565L21.6631 6.68656L21.2681 6.99315ZM11.7181 3.78065L12.114 3.47514L11.9227 3.22736L11.6163 3.29113L11.7181 3.78065ZM9.25565 4.29315L9.15377 3.80363L8.3679 3.96719L8.86121 4.60043L9.25565 4.29315ZM12.6931 8.70564L12.2987 9.01292L12.4882 9.25622L12.7907 9.19603L12.6931 8.70564ZM15.1431 8.21815L15.2407 8.70853L16.0318 8.55113L15.539 7.91264L15.1431 8.21815ZM5.58065 5.03065L5.97562 4.72406L5.78719 4.48129L5.48548 4.53979L5.58065 5.03065ZM4.35565 5.26815L4.26048 4.77728L4.25891 4.77759L4.35565 5.26815ZM2.39315 8.20565L2.88354 8.10807L2.88337 8.10723L2.39315 8.20565ZM2.88065 10.6556L2.39026 10.7532L2.48774 11.2431L2.97774 11.1461L2.88065 10.6556ZM9.00565 9.44314L9.10274 9.93363L9.89723 9.77635L9.40062 9.13656L9.00565 9.44314ZM25.3806 13.1556H25.8806V12.6556H25.3806V13.1556ZM25.3806 23.1556V23.6556H25.8806V23.1556H25.3806ZM5.38065 23.1556H4.88065V23.6556H5.38065V23.1556ZM5.38065 13.1556V12.6556H4.88065V13.1556H5.38065ZM27.8806 10.6556H28.3806V10.1556H27.8806V10.6556ZM2.88065 10.6556V10.1556H2.38065V10.6556H2.88065ZM2.88065 23.1556H2.38065H2.88065ZM26.3333 0.390212L21.4208 1.36521L21.6155 2.34608L26.528 1.37108L26.3333 0.390212ZM21.1227 2.16169L24.5477 6.58669L25.3385 5.9746L21.9135 1.5496L21.1227 2.16169ZM25.0426 6.77065L27.5051 6.27065L27.3062 5.29064L24.8437 5.79064L25.0426 6.77065ZM27.896 5.68307L26.921 0.783069L25.9403 0.978223L26.9153 5.87822L27.896 5.68307ZM17.746 2.09016L15.2835 2.57766L15.4777 3.55863L17.9402 3.07113L17.746 2.09016ZM14.9862 3.37543L18.4237 7.78793L19.2126 7.17337L15.7751 2.76087L14.9862 3.37543ZM18.9157 7.97103L21.3657 7.48353L21.1706 6.50276L18.7206 6.99026L18.9157 7.97103ZM21.6631 6.68656L18.2381 2.27406L17.4482 2.88723L20.8732 7.29973L21.6631 6.68656ZM11.6163 3.29113L9.15377 3.80363L9.35753 4.78266L11.82 4.27016L11.6163 3.29113ZM8.86121 4.60043L12.2987 9.01292L13.0876 8.39837L9.65008 3.98587L8.86121 4.60043ZM12.7907 9.19603L15.2407 8.70853L15.0456 7.72776L12.5956 8.21526L12.7907 9.19603ZM15.539 7.91264L12.114 3.47514L11.3223 4.08615L14.7473 8.52365L15.539 7.91264ZM5.48548 4.53979L4.26048 4.77729L4.45081 5.75901L5.67581 5.52151L5.48548 4.53979ZM4.25891 4.77759C3.87235 4.85382 3.50463 5.00561 3.17685 5.22425L3.73176 6.05616C3.95005 5.91055 4.19494 5.80946 4.45238 5.7587L4.25891 4.77759ZM3.17685 5.22425C2.84907 5.44289 2.56767 5.72408 2.34879 6.0517L3.1803 6.60722C3.32606 6.38903 3.51347 6.20177 3.73176 6.05616L3.17685 5.22425ZM2.34879 6.0517C2.12991 6.37932 1.97786 6.74693 1.90135 7.13344L2.88231 7.32762C2.93327 7.07022 3.03453 6.82541 3.1803 6.60722L2.34879 6.0517ZM1.90135 7.13344C1.82484 7.51995 1.82537 7.91776 1.90293 8.30406L2.88337 8.10723C2.83172 7.84996 2.83136 7.58503 2.88231 7.32762L1.90135 7.13344ZM1.90276 8.30322L2.39026 10.7532L3.37103 10.5581L2.88353 8.10807L1.90276 8.30322ZM2.97774 11.1461L9.10274 9.93363L8.90855 8.95266L2.78355 10.1652L2.97774 11.1461ZM9.40062 9.13656L5.97562 4.72406L5.18567 5.33723L8.61067 9.74973L9.40062 9.13656ZM24.8806 13.1556V23.1556H25.8806V13.1556H24.8806ZM25.3806 22.6556H5.38065V23.6556H25.3806V22.6556ZM5.88065 23.1556V13.1556H4.88065V23.1556H5.88065ZM5.38065 13.6556H25.3806V12.6556H5.38065V13.6556ZM27.8806 10.1556H2.88065V11.1556H27.8806V10.1556ZM2.38065 10.6556V23.1556H3.38065V10.6556H2.38065ZM2.38065 23.1556C2.38065 23.9513 2.69672 24.7144 3.25933 25.277L3.96643 24.5699C3.59136 24.1948 3.38065 23.6861 3.38065 23.1556H2.38065ZM3.25933 25.277C3.82194 25.8396 4.585 26.1556 5.38065 26.1556V25.1556C4.85022 25.1556 4.34151 24.9449 3.96643 24.5699L3.25933 25.277ZM5.38065 26.1556H25.3806V25.1556H5.38065V26.1556ZM25.3806 26.1556C27.0443 26.1556 28.3806 24.8193 28.3806 23.1556H27.3806C27.3806 24.267 26.492 25.1556 25.3806 25.1556V26.1556ZM28.3806 23.1556V10.6556H27.3806V23.1556H28.3806Z" fill="#101010" mask="url(#path-1-inside-1_2202_22)"/>
</svg>

<svg xmlns="http://www.w3.org/2000/svg" width="30" height="30" fill="none"><mask id="a" fill="#fff"><path d="m26.43.88-4.912.976 3.425 4.425 2.463-.5zm-8.587 1.7-2.462.488 3.437 4.413 2.45-.488zm-6.125 1.2-2.462.513 3.437 4.413 2.45-.488zM5.581 5.03l-1.225.238a2.494 2.494 0 0 0-1.963 2.938l.488 2.45 6.125-1.213zm19.8 8.126v10h-20v-10zm2.5-2.5h-25v12.5a2.5 2.5 0 0 0 2.5 2.5h20c1.387 0 2.5-1.113 2.5-2.5z"/></mask><path fill="#fff" d="m26.43.88-4.912.976 3.425 4.425 2.463-.5zm-8.587 1.7-2.462.488 3.437 4.413 2.45-.488zm-6.125 1.2-2.462.513 3.437 4.413 2.45-.488zM5.581 5.03l-1.225.238a2.494 2.494 0 0 0-1.963 2.938l.488 2.45 6.125-1.213zm19.8 8.126v10h-20v-10zm2.5-2.5h-25v12.5a2.5 2.5 0 0 0 2.5 2.5h20c1.387 0 2.5-1.113 2.5-2.5z"/><path fill="#101010" d="m21.518 1.856-.097-.49-.793.157.495.639zm3.425 4.425-.395.306.19.245.305-.061zm2.463-.5.1.49.487-.1-.097-.488zM15.38 3.068l-.098-.49-.795.157.498.64zm3.437 4.413-.394.307.19.243.302-.06zm2.45-.488.098.49.793-.157-.496-.64zm-9.55-3.212.396-.306-.191-.248-.307.064zm-2.462.512-.102-.49-.786.164.493.633zm3.437 4.413-.394.307.19.243.302-.06zm2.45-.488.098.49.79-.157-.492-.638zM5.581 5.031l.395-.307-.189-.243-.302.059zm-1.225.237-.096-.49H4.26zM2.393 8.206l.49-.098zm.488 2.45-.49.097.097.49.49-.097zm6.125-1.213.097.49.794-.157-.496-.64zm16.375 3.713h.5v-.5h-.5zm0 10v.5h.5v-.5zm-20 0h-.5v.5h.5zm0-10v-.5h-.5v.5zm22.5-2.5h.5v-.5h-.5zm-25 0v-.5h-.5v.5zm0 12.5h-.5zM26.333.39l-4.912.975.195.981 4.912-.975zm-5.21 1.772 3.425 4.425.79-.612-3.425-4.425zm3.92 4.609 2.462-.5-.199-.98-2.462.5zm2.853-1.088-.975-4.9-.98.195.974 4.9zM17.746 2.09l-2.462.488.194.98 2.462-.487zm-2.76 1.285 3.438 4.413.789-.615-3.438-4.412zm3.93 4.596 2.45-.487-.195-.981-2.45.487zm2.747-1.284-3.425-4.413-.79.613L20.873 7.3zM11.616 3.29l-2.462.513.204.979 2.462-.513zm-2.755 1.31L12.3 9.012l.789-.615L9.65 3.986zm3.93 4.595 2.45-.487-.195-.981-2.45.487zm2.748-1.283-3.425-4.438-.792.611 3.425 4.438zM5.485 4.54l-1.225.237.19.982 1.226-.237zm-1.226.238a3 3 0 0 0-1.082.446l.555.832c.218-.145.463-.247.72-.297zm-1.082.446c-.328.219-.61.5-.828.828l.831.555c.146-.218.333-.405.552-.55zm-.828.828c-.22.327-.371.695-.448 1.081l.981.195c.051-.258.153-.503.298-.72zM1.9 7.133c-.076.387-.076.785.002 1.171l.98-.197a2 2 0 0 1 0-.78zm.002 1.17.487 2.45.981-.195-.487-2.45zm1.075 2.843 6.125-1.212-.194-.981-6.125 1.212zM9.4 9.136 5.976 4.725l-.79.613L8.61 9.75zm15.48 4.02v10h1v-10zm.5 9.5h-20v1h20zm-19.5.5v-10h-1v10zm-.5-9.5h20v-1h-20zm22.5-3.5h-25v1h25zm-25.5.5v12.5h1v-12.5zm0 12.5a3 3 0 0 0 .878 2.121l.707-.707a2 2 0 0 1-.585-1.414zm.878 2.121a3 3 0 0 0 2.122.879v-1a2 2 0 0 1-1.415-.586zm2.122.879h20v-1h-20zm20 0c1.663 0 3-1.337 3-3h-1c0 1.111-.889 2-2 2zm3-3v-12.5h-1v12.5z" mask="url(#a)"/></svg>
